svg/fluentui-system-icons/ic_fluent_wallet_credit_card_32_regular.svg

<svg width="32" height="32" viewBox="0 0 32 32" fill="none" xmlns="http://www.w3.org/2000/svg">
<path d="M18.9634 4.1877C19.1356 3.97039 19.4516 3.9346 19.668 4.1079L20.7487 4.97351L16.7982 10H19.3419L22.3097 6.22389L24.8142 8.22997C25.0353 8.40702 25.0653 8.73213 24.8804 8.94665L23.9728 9.99976H26.5869C27.2916 8.93783 27.0861 7.48718 26.0646 6.66898L20.9183 2.54691C19.8365 1.6804 18.2562 1.8594 17.3957 2.94591L11.8086 9.99976H14.36L18.9634 4.1877ZM21 19C20.4477 19 20 19.4477 20 20C20 20.5523 20.4477 21 21 21H24C24.5523 21 25 20.5523 25 20C25 19.4477 24.5523 19 24 19H21ZM6 7C4.34315 7 3 8.34315 3 10V24.5004C3 26.9857 5.01472 29.0004 7.5 29.0004H24.5C26.9853 29.0004 29 26.9857 29 24.5004V15.5004C29 13.0152 26.9853 11.0004 24.5 11.0004L6 11C5.44772 11 5 10.5523 5 10C5 9.44772 5.44772 9 6 9H10.58L12.1763 7H6ZM5 24.5004V12.8293C5.31278 12.9398 5.64936 13 6 13H9.46974C9.47979 13.0003 9.48988 13.0004 9.5 13.0004H24.5C25.8807 13.0004 27 14.1197 27 15.5004V24.5004C27 25.8812 25.8807 27.0004 24.5 27.0004H7.5C6.11929 27.0004 5 25.8812 5 24.5004Z" fill="#212121"/>
</svg>

<svg xmlns="http://www.w3.org/2000/svg" width="32" height="32"><path d="M18.963 4.188a.5.5 0 0 1 .705-.08l1.08.866L16.799 10h2.544l2.968-3.776 2.504 2.006a.5.5 0 0 1 .066.717L23.973 10h2.614a2.5 2.5 0 0 0-.522-3.331l-5.147-4.122a2.5 2.5 0 0 0-3.522.399L11.809 10h2.551l4.603-5.812ZM21 19a1 1 0 1 0 0 2h3a1 1 0 1 0 0-2h-3ZM6 7a3 3 0 0 0-3 3v14.5A4.5 4.5 0 0 0 7.5 29h17a4.5 4.5 0 0 0 4.5-4.5v-9a4.5 4.5 0 0 0-4.5-4.5H6a1 1 0 1 1 0-2h4.58l1.596-2H6ZM5 24.5V12.83c.313.11.65.17 1 .17h18.5a2.5 2.5 0 0 1 2.5 2.5v9a2.5 2.5 0 0 1-2.5 2.5h-17A2.5 2.5 0 0 1 5 24.5Z"/></svg>
